X: 4035
T: The SOLDIER'S RETURN
R: Reel.
%R: reel
B: James Kerr "Merry Melodies" v.4 p.07 #35
Z: 2016 John Chambers <jc:trillian.mit.edu>
M: C|
L: 1/8
K: D
(ude) |\
f2AA A2dc | BABd e2(de) |\
f2A2 gfed | BABc d2 :|\
A2 |\
defg a2(gf) | bagf e2A2 |
defg abag | fefg a2A2 |\
defg a2(gf) | bagf e2(de) |\
f2A2 gfed | BABc d2 |]

%%sep 1 1 500
%%sep 1 1 500

